img/heart.svg

<svg
    xmlns:svg="http://www.w3.org/2000/svg"
    xmlns="http://www.w3.org/2000/svg"
   version="1.0"
   width="645"
   height="585"
   id="svg2">
    <defs
     id="defs4" />
    <g
     id="layer1">
        <path
       d="M 297.29747,550.86823 C 283.52243,535.43191 249.1268,505.33855 220.86277,483.99412 C 137.11867,420.75228 125.72108,411.5999 91.719238,380.29088 C 29.03471,322.57071 2.413622,264.58086 2.5048478,185.95124 C 2.5493594,147.56739 5.1656152,132.77929 15.914734,110.15398 C 34.151433,71.768267 61.014996,43.244667 95.360052,25.799457 C 119.68545,13.443675 131.6827,7.9542046 172.30448,7.7296236 C 214.79777,7.4947896 223.74311,12.449347 248.73919,26.181459 C 279.1637,42.895777 310.47909,78.617167 316.95242,103.99205 L 320.95052,119.66445 L 330.81015,98.079942 C 386.52632,-23.892986 564.40851,-22.06811 626.31244,101.11153 C 645.95011,140.18758 648.10608,223.6247 630.69256,270.6244 C 607.97729,331.93377 565.31255,378.67493 466.68622,450.30098 C 402.0054,497.27462 328.80148,568.34684 323.70555,578.32901 C 317.79007,589.91654 323.42339,580.14491 297.29747,550.86823 z"
       id="path2417"
       style="fill:#d85151" />
        <g
       transform="translate(129.28571,-64.285714)"
       id="g2221" /></g>
</svg>

<svg xmlns="http://www.w3.org/2000/svg" version="1.0" width="645" height="585"><path d="M297.297 550.868c-13.775-15.436-48.17-45.53-76.434-66.874-83.744-63.242-95.142-72.394-129.144-103.703C29.035 322.57 2.414 264.58 2.505 185.95c.044-38.384 2.66-53.172 13.41-75.797 18.236-38.386 45.1-66.91 79.445-84.355 24.325-12.355 36.323-17.845 76.944-18.07 42.494-.234 51.44 4.72 76.435 18.452 30.425 16.715 61.74 52.436 68.213 77.811l3.999 15.672 9.86-21.584c55.715-121.973 233.598-120.148 295.501 3.032 19.638 39.076 21.794 122.513 4.38 169.512-22.715 61.31-65.38 108.05-164.006 179.677-64.68 46.974-137.885 118.046-142.98 128.028-5.916 11.588-.283 1.816-26.409-27.46z" fill="#d85151"/></svg>
